src/topics/icons/appveyor.svg

<svg height="256" preserveAspectRatio="xMidYMid" viewBox="0 0 256 256" width="256" xmlns="http://www.w3.org/2000/svg"><path d="m127.585761 0c71.24919 0 128.414239 57.1650485 128.414239 127.585761 0 71.24919-57.165049 128.414239-128.414239 128.414239-70.4207125 0-127.585761-57.165049-127.585761-128.414239 0-70.4207125 57.1650485-127.585761 127.585761-127.585761zm31.4822 152.440129c-14.084142 18.226538-39.76699 21.540454-57.165048 7.456311-17.3980586-13.255663-19.8834955-38.938511-5.7993531-57.165048 14.9126211-17.3980587 40.5954691-20.7119745 57.9935271-7.4563111 17.398059 14.0841421 19.883496 39.7669901 4.970874 57.1650481zm-67.9352749 83.676376 48.8802589-47.223301c-18.226537 4.142395-37.281553.828479-52.1941748-11.598706-17.3980582-13.255663-24.8543689-35.624595-22.368932-56.336569l-43.9093851 48.05178s-5.7993528-10.770227-7.4563107-30.653722l77.0485437-60.4789643c23.1974109-16.5695793 54.6796119-17.3980583 77.0485439 0 24.854369 19.8834951 29.825242 56.3365693 11.598705 83.6763753l-56.336569 80.36246c-8.28479 0-24.8543692-2.485437-32.3106799-5.799353z" fill="#00b3e0" fill-rule="evenodd"/></svg>

<?xml version="1.0" encoding="UTF-8" standalone="no"?>
<svg width="256px" height="256px" viewBox="0 0 256 256" version="1.1" xmlns="http://www.w3.org/2000/svg" xmlns:xlink="http://www.w3.org/1999/xlink" preserveAspectRatio="xMidYMid">
    <g fill-rule="evenodd">
        <path d="M127.585761,0 C198.834951,0 256,57.1650485 256,127.585761 C256,198.834951 198.834951,256 127.585761,256 C57.1650485,256 0,198.834951 0,127.585761 C0,57.1650485 57.1650485,0 127.585761,0 L127.585761,0 Z M159.067961,152.440129 C144.983819,170.666667 119.300971,173.980583 101.902913,159.89644 C84.5048544,146.640777 82.0194175,120.957929 96.1035599,102.731392 C111.016181,85.3333333 136.699029,82.0194175 154.097087,95.2750809 C171.495146,109.359223 173.980583,135.042071 159.067961,152.440129 L159.067961,152.440129 Z M91.1326861,236.116505 L140.012945,188.893204 C121.786408,193.035599 102.731392,189.721683 87.8187702,177.294498 C70.420712,164.038835 62.9644013,141.669903 65.4498382,120.957929 L21.5404531,169.009709 C21.5404531,169.009709 15.7411003,158.239482 14.0841424,138.355987 L91.1326861,77.8770227 C114.330097,61.3074434 145.812298,60.4789644 168.18123,77.8770227 C193.035599,97.7605178 198.006472,134.213592 179.779935,161.553398 L123.443366,241.915858 C115.158576,241.915858 98.5889968,239.430421 91.1326861,236.116505 L91.1326861,236.116505 Z" fill="#00B3E0"></path>
    </g>
</svg>
